images/5383431.svg

<?xml version="1.0" encoding="UTF-8"?>
<svg xmlns="http://www.w3.org/2000/svg" xmlns:xlink="http://www.w3.org/1999/xlink" width="300pt" height="300pt" viewBox="0 0 300 300" version="1.1">
<defs>
<g>
<symbol overflow="visible" id="glyph0-0">
<path style="stroke:none;" d="M 0.453125 1.59375 L 0.453125 -6.34375 L 4.953125 -6.34375 L 4.953125 1.59375 Z M 0.953125 1.09375 L 4.453125 1.09375 L 4.453125 -5.84375 L 0.953125 -5.84375 Z M 0.953125 1.09375 "/>
</symbol>
<symbol overflow="visible" id="glyph0-1">
<path style="stroke:none;" d="M 0.890625 -6.5625 L 2.078125 -6.5625 L 4.984375 -1.078125 L 4.984375 -6.5625 L 5.84375 -6.5625 L 5.84375 0 L 4.65625 0 L 1.75 -5.484375 L 1.75 0 L 0.890625 0 Z M 0.890625 -6.5625 "/>
</symbol>
<symbol overflow="visible" id="glyph0-2">
<path style="stroke:none;" d="M 0.890625 -6.5625 L 1.765625 -6.5625 L 1.765625 -3.875 L 5 -3.875 L 5 -6.5625 L 5.890625 -6.5625 L 5.890625 0 L 5 0 L 5 -3.125 L 1.765625 -3.125 L 1.765625 0 L 0.890625 0 Z M 0.890625 -6.5625 "/>
</symbol>
<symbol overflow="visible" id="glyph0-3">
<path style="stroke:none;" d="M 3.546875 -5.953125 C 2.898438 -5.953125 2.382812 -5.710938 2 -5.234375 C 1.625 -4.753906 1.4375 -4.101562 1.4375 -3.28125 C 1.4375 -2.445312 1.625 -1.789062 2 -1.3125 C 2.382812 -0.832031 2.898438 -0.59375 3.546875 -0.59375 C 4.191406 -0.59375 4.703125 -0.832031 5.078125 -1.3125 C 5.453125 -1.789062 5.640625 -2.445312 5.640625 -3.28125 C 5.640625 -4.101562 5.453125 -4.753906 5.078125 -5.234375 C 4.703125 -5.710938 4.191406 -5.953125 3.546875 -5.953125 Z M 3.546875 -6.6875 C 4.460938 -6.6875 5.195312 -6.375 5.75 -5.75 C 6.300781 -5.132812 6.578125 -4.3125 6.578125 -3.28125 C 6.578125 -2.238281 6.300781 -1.410156 5.75 -0.796875 C 5.195312 -0.179688 4.460938 0.125 3.546875 0.125 C 2.617188 0.125 1.878906 -0.179688 1.328125 -0.796875 C 0.773438 -1.410156 0.5 -2.238281 0.5 -3.28125 C 0.5 -4.3125 0.773438 -5.132812 1.328125 -5.75 C 1.878906 -6.375 2.617188 -6.6875 3.546875 -6.6875 Z M 3.546875 -6.6875 "/>
</symbol>
<symbol overflow="visible" id="glyph1-0">
<path style="stroke:none;" d="M 0.40625 1.421875 L 0.40625 -5.640625 L 4.40625 -5.640625 L 4.40625 1.421875 Z M 0.84375 0.96875 L 3.953125 0.96875 L 3.953125 -5.1875 L 0.84375 -5.1875 Z M 0.84375 0.96875 "/>
</symbol>
<symbol overflow="visible" id="glyph1-1">
<path style="stroke:none;" d="M 3.6875 -5.015625 L 3.6875 -2.84375 L 5.859375 -2.84375 L 5.859375 -2.171875 L 3.6875 -2.171875 L 3.6875 0 L 3.03125 0 L 3.03125 -2.171875 L 0.84375 -2.171875 L 0.84375 -2.84375 L 3.03125 -2.84375 L 3.03125 -5.015625 Z M 3.6875 -5.015625 "/>
</symbol>
<symbol overflow="visible" id="glyph1-2">
<path style="stroke:none;" d="M 0.390625 -2.515625 L 2.5 -2.515625 L 2.5 -1.875 L 0.390625 -1.875 Z M 0.390625 -2.515625 "/>
</symbol>
</g>
</defs>
<g id="surface52661">
<rect x="0" y="0" width="300" height="300" style="fill:rgb(100%,100%,100%);fill-opacity:1;stroke:none;"/>
<path style="fill:none;stroke-width:1.2;stroke-linecap:butt;stroke-linejoin:miter;stroke:rgb(0%,0%,0%);stroke-opacity:1;stroke-miterlimit:10;" d="M 35.25 156.191406 L 37.265625 134.304688 "/>
<path style="fill:none;stroke-width:1.2;stroke-linecap:butt;stroke-linejoin:miter;stroke:rgb(0%,0%,0%);stroke-opacity:1;stroke-miterlimit:10;" d="M 40.601562 154.476562 L 42.214844 136.964844 "/>
<path style="fill:none;stroke-width:1.2;stroke-linecap:butt;stroke-linejoin:miter;stroke:rgb(0%,0%,0%);stroke-opacity:1;stroke-miterlimit:10;" d="M 53.199219 168.882812 L 35.25 156.191406 "/>
<path style="fill:none;stroke-width:1.2;stroke-linecap:butt;stroke-linejoin:miter;stroke:rgb(0%,0%,0%);stroke-opacity:1;stroke-miterlimit:10;" d="M 37.265625 134.304688 L 57.226562 125.101562 "/>
<path style="fill:none;stroke-width:1.2;stroke-linecap:butt;stroke-linejoin:miter;stroke:rgb(0%,0%,0%);stroke-opacity:1;stroke-miterlimit:10;" d="M 57.226562 125.101562 L 75.179688 137.792969 "/>
<path style="fill:none;stroke-width:1.2;stroke-linecap:butt;stroke-linejoin:miter;stroke:rgb(0%,0%,0%);stroke-opacity:1;stroke-miterlimit:10;" d="M 56.039062 130.59375 L 70.398438 140.746094 "/>
<path style="fill:none;stroke-width:1.2;stroke-linecap:butt;stroke-linejoin:miter;stroke:rgb(0%,0%,0%);stroke-opacity:1;stroke-miterlimit:10;" d="M 75.179688 137.792969 L 73.164062 159.679688 "/>
<path style="fill:none;stroke-width:1.2;stroke-linecap:butt;stroke-linejoin:miter;stroke:rgb(0%,0%,100%);stroke-opacity:1;stroke-miterlimit:10;" d="M 95.140625 128.589844 L 85.160156 133.191406 "/>
<path style="fill:none;stroke-width:1.2;stroke-linecap:butt;stroke-linejoin:miter;stroke:rgb(0%,0%,0%);stroke-opacity:1;stroke-miterlimit:10;" d="M 85.160156 133.191406 L 75.179688 137.792969 "/>
<path style="fill:none;stroke-width:1.2;stroke-linecap:butt;stroke-linejoin:miter;stroke:rgb(0%,0%,0%);stroke-opacity:1;stroke-miterlimit:10;" d="M 73.164062 159.679688 L 53.199219 168.882812 "/>
<path style="fill:none;stroke-width:1.2;stroke-linecap:butt;stroke-linejoin:miter;stroke:rgb(0%,0%,0%);stroke-opacity:1;stroke-miterlimit:10;" d="M 69.003906 155.902344 L 53.03125 163.265625 "/>
<path style="fill:none;stroke-width:1.2;stroke-linecap:butt;stroke-linejoin:miter;stroke:rgb(0%,0%,0%);stroke-opacity:1;stroke-miterlimit:10;" d="M 73.164062 159.679688 L 91.113281 172.371094 "/>
<path style="fill:none;stroke-width:1.2;stroke-linecap:butt;stroke-linejoin:miter;stroke:rgb(0%,0%,0%);stroke-opacity:1;stroke-miterlimit:10;" d="M 91.113281 172.371094 L 111.078125 163.167969 "/>
<path style="fill:none;stroke-width:1.2;stroke-linecap:butt;stroke-linejoin:miter;stroke:rgb(0%,0%,0%);stroke-opacity:1;stroke-miterlimit:10;" d="M 90.945312 166.753906 L 106.917969 159.390625 "/>
<path style="fill:none;stroke-width:1.2;stroke-linecap:butt;stroke-linejoin:miter;stroke:rgb(0%,0%,0%);stroke-opacity:1;stroke-miterlimit:10;" d="M 111.078125 163.167969 L 113.09375 141.28125 "/>
<path style="fill:none;stroke-width:1.2;stroke-linecap:butt;stroke-linejoin:miter;stroke:rgb(0%,0%,0%);stroke-opacity:1;stroke-miterlimit:10;" d="M 113.09375 141.28125 L 104.117188 134.933594 "/>
<path style="fill:none;stroke-width:1.2;stroke-linecap:butt;stroke-linejoin:miter;stroke:rgb(0%,0%,100%);stroke-opacity:1;stroke-miterlimit:10;" d="M 104.117188 134.933594 L 95.140625 128.589844 "/>
<path style="fill:none;stroke-width:1.2;stroke-linecap:butt;stroke-linejoin:miter;stroke:rgb(0%,0%,0%);stroke-opacity:1;stroke-miterlimit:10;" d="M 108.3125 144.234375 L 101.132812 139.160156 "/>
<path style="fill:none;stroke-width:1.2;stroke-linecap:butt;stroke-linejoin:miter;stroke:rgb(0%,0%,100%);stroke-opacity:1;stroke-miterlimit:10;" d="M 101.132812 139.160156 L 93.953125 134.082031 "/>
<path style="fill:none;stroke-width:1.2;stroke-linecap:butt;stroke-linejoin:miter;stroke:rgb(0%,0%,0%);stroke-opacity:1;stroke-miterlimit:10;" d="M 113.09375 141.28125 L 123.074219 136.679688 "/>
<path style="fill:none;stroke-width:1.2;stroke-linecap:butt;stroke-linejoin:miter;stroke:rgb(0%,0%,100%);stroke-opacity:1;stroke-miterlimit:10;" d="M 123.074219 136.679688 L 133.058594 132.078125 "/>
<path style=" stroke:none;fill-rule:nonzero;fill:rgb(100%,100%,100%);fill-opacity:1;" d="M 92.140625 123.089844 L 99.140625 123.089844 L 99.140625 134.089844 L 92.140625 134.089844 Z M 92.140625 123.089844 "/>
<g style="fill:rgb(0%,0%,100%);fill-opacity:1;">
  <use xlink:href="#glyph0-1" x="92.140625" y="131.75293"/>
</g>
<path style="fill:none;stroke-width:1.2;stroke-linecap:butt;stroke-linejoin:miter;stroke:rgb(0%,0%,100%);stroke-opacity:1;stroke-miterlimit:10;" d="M 133.058594 132.078125 L 151.007812 144.769531 "/>
<path style=" stroke:none;fill-rule:nonzero;fill:rgb(100%,100%,100%);fill-opacity:1;" d="M 126.058594 126.578125 L 140.058594 126.578125 L 140.058594 137.578125 L 126.058594 137.578125 Z M 126.058594 126.578125 "/>
<g style="fill:rgb(0%,0%,100%);fill-opacity:1;">
  <use xlink:href="#glyph0-1" x="126.058594" y="135.241211"/>
  <use xlink:href="#glyph0-2" x="133.036133" y="135.241211"/>
</g>
<path style="fill:none;stroke-width:1.2;stroke-linecap:butt;stroke-linejoin:miter;stroke:rgb(0%,0%,100%);stroke-opacity:1;stroke-miterlimit:10;" d="M 151.007812 144.769531 L 160.988281 140.167969 "/>
<path style="fill:none;stroke-width:1.2;stroke-linecap:butt;stroke-linejoin:miter;stroke:rgb(0%,0%,0%);stroke-opacity:1;stroke-miterlimit:10;" d="M 160.988281 140.167969 L 170.972656 135.566406 "/>
<path style=" stroke:none;fill-rule:nonzero;fill:rgb(100%,100%,100%);fill-opacity:1;" d="M 144.007812 139.269531 L 158.007812 139.269531 L 158.007812 150.269531 L 144.007812 150.269531 Z M 144.007812 139.269531 "/>
<g style="fill:rgb(0%,0%,100%);fill-opacity:1;">
  <use xlink:href="#glyph0-1" x="144.007812" y="147.932617"/>
  <use xlink:href="#glyph0-2" x="150.985352" y="147.932617"/>
</g>
<path style="fill:none;stroke-width:1.2;stroke-linecap:butt;stroke-linejoin:miter;stroke:rgb(0%,0%,0%);stroke-opacity:1;stroke-miterlimit:10;" d="M 170.972656 135.566406 L 188.921875 148.257812 "/>
<path style="fill:none;stroke-width:1.2;stroke-linecap:butt;stroke-linejoin:miter;stroke:rgb(0%,0%,0%);stroke-opacity:1;stroke-miterlimit:10;" d="M 169.78125 141.058594 L 184.140625 151.210938 "/>
<path style="fill:none;stroke-width:1.2;stroke-linecap:butt;stroke-linejoin:miter;stroke:rgb(0%,0%,0%);stroke-opacity:1;stroke-miterlimit:10;" d="M 188.921875 148.257812 L 186.90625 170.144531 "/>
<path style="fill:none;stroke-width:1.2;stroke-linecap:butt;stroke-linejoin:miter;stroke:rgb(0%,0%,0%);stroke-opacity:1;stroke-miterlimit:10;" d="M 188.921875 148.257812 L 208.886719 139.054688 "/>
<path style="fill:none;stroke-width:1.2;stroke-linecap:butt;stroke-linejoin:miter;stroke:rgb(0%,0%,0%);stroke-opacity:1;stroke-miterlimit:10;" d="M 186.90625 170.144531 L 204.859375 182.835938 "/>
<path style="fill:none;stroke-width:1.2;stroke-linecap:butt;stroke-linejoin:miter;stroke:rgb(0%,0%,0%);stroke-opacity:1;stroke-miterlimit:10;" d="M 191.6875 167.191406 L 206.046875 177.34375 "/>
<path style="fill:none;stroke-width:1.2;stroke-linecap:butt;stroke-linejoin:miter;stroke:rgb(0%,0%,0%);stroke-opacity:1;stroke-miterlimit:10;" d="M 204.859375 182.835938 L 224.820312 173.632812 "/>
<path style="fill:none;stroke-width:1.2;stroke-linecap:butt;stroke-linejoin:miter;stroke:rgb(0%,0%,0%);stroke-opacity:1;stroke-miterlimit:10;" d="M 224.820312 173.632812 L 226.835938 151.742188 "/>
<path style="fill:none;stroke-width:1.2;stroke-linecap:butt;stroke-linejoin:miter;stroke:rgb(0%,0%,0%);stroke-opacity:1;stroke-miterlimit:10;" d="M 219.871094 170.972656 L 221.484375 153.460938 "/>
<path style="fill:none;stroke-width:1.2;stroke-linecap:butt;stroke-linejoin:miter;stroke:rgb(0%,0%,0%);stroke-opacity:1;stroke-miterlimit:10;" d="M 226.835938 151.742188 L 208.886719 139.054688 "/>
<path style="fill:none;stroke-width:1.2;stroke-linecap:butt;stroke-linejoin:miter;stroke:rgb(0%,0%,0%);stroke-opacity:1;stroke-miterlimit:10;" d="M 226.835938 151.742188 L 236.816406 147.144531 "/>
<path style="fill:none;stroke-width:1.2;stroke-linecap:butt;stroke-linejoin:miter;stroke:rgb(0%,0%,100%);stroke-opacity:1;stroke-miterlimit:10;" d="M 236.816406 147.144531 L 246.800781 142.542969 "/>
<path style="fill:none;stroke-width:1.2;stroke-linecap:butt;stroke-linejoin:miter;stroke:rgb(0%,0%,0%);stroke-opacity:1;stroke-miterlimit:10;" d="M 211.460938 139.292969 L 212.46875 128.347656 "/>
<path style="fill:none;stroke-width:1.2;stroke-linecap:butt;stroke-linejoin:miter;stroke:rgb(100%,0%,0%);stroke-opacity:1;stroke-miterlimit:10;" d="M 212.46875 128.347656 L 213.476562 117.402344 "/>
<path style="fill:none;stroke-width:1.2;stroke-linecap:butt;stroke-linejoin:miter;stroke:rgb(0%,0%,0%);stroke-opacity:1;stroke-miterlimit:10;" d="M 206.308594 138.816406 L 207.316406 127.875 "/>
<path style="fill:none;stroke-width:1.2;stroke-linecap:butt;stroke-linejoin:miter;stroke:rgb(100%,0%,0%);stroke-opacity:1;stroke-miterlimit:10;" d="M 207.316406 127.875 L 208.324219 116.929688 "/>
<path style=" stroke:none;fill-rule:nonzero;fill:rgb(100%,100%,100%);fill-opacity:1;" d="M 206.898438 111.664062 L 214.898438 111.664062 L 214.898438 122.664062 L 206.898438 122.664062 Z M 206.898438 111.664062 "/>
<g style="fill:rgb(100%,0%,0%);fill-opacity:1;">
  <use xlink:href="#glyph0-3" x="206.898438" y="120.327148"/>
</g>
<path style="fill:none;stroke-width:1.2;stroke-linecap:butt;stroke-linejoin:miter;stroke:rgb(0%,0%,100%);stroke-opacity:1;stroke-miterlimit:10;" d="M 249.375 142.78125 L 250.382812 131.835938 "/>
<path style="fill:none;stroke-width:1.2;stroke-linecap:butt;stroke-linejoin:miter;stroke:rgb(100%,0%,0%);stroke-opacity:1;stroke-miterlimit:10;" d="M 250.382812 131.835938 L 251.390625 120.890625 "/>
<path style="fill:none;stroke-width:1.2;stroke-linecap:butt;stroke-linejoin:miter;stroke:rgb(0%,0%,100%);stroke-opacity:1;stroke-miterlimit:10;" d="M 244.222656 142.304688 L 245.230469 131.363281 "/>
<path style="fill:none;stroke-width:1.2;stroke-linecap:butt;stroke-linejoin:miter;stroke:rgb(100%,0%,0%);stroke-opacity:1;stroke-miterlimit:10;" d="M 245.230469 131.363281 L 246.238281 120.417969 "/>
<path style="fill:none;stroke-width:1.2;stroke-linecap:butt;stroke-linejoin:miter;stroke:rgb(0%,0%,100%);stroke-opacity:1;stroke-miterlimit:10;" d="M 246.800781 142.542969 L 255.773438 148.886719 "/>
<path style="fill:none;stroke-width:1.2;stroke-linecap:butt;stroke-linejoin:miter;stroke:rgb(100%,0%,0%);stroke-opacity:1;stroke-miterlimit:10;" d="M 255.773438 148.886719 L 264.75 155.230469 "/>
<path style=" stroke:none;fill-rule:nonzero;fill:rgb(100%,100%,100%);fill-opacity:1;" d="M 239.800781 135.042969 L 253.800781 135.042969 L 253.800781 150.042969 L 239.800781 150.042969 Z M 239.800781 135.042969 "/>
<g style="fill:rgb(0%,0%,100%);fill-opacity:1;">
  <use xlink:href="#glyph0-1" x="239.800781" y="147.144531"/>
</g>
<g style="fill:rgb(0%,0%,100%);fill-opacity:1;">
  <use xlink:href="#glyph1-1" x="246.77832" y="142.261719"/>
</g>
<path style=" stroke:none;fill-rule:nonzero;fill:rgb(100%,100%,100%);fill-opacity:1;" d="M 244.8125 115.152344 L 252.8125 115.152344 L 252.8125 126.152344 L 244.8125 126.152344 Z M 244.8125 115.152344 "/>
<g style="fill:rgb(100%,0%,0%);fill-opacity:1;">
  <use xlink:href="#glyph0-3" x="244.8125" y="123.81543"/>
</g>
<path style=" stroke:none;fill-rule:nonzero;fill:rgb(100%,100%,100%);fill-opacity:1;" d="M 259.75 147.730469 L 270.75 147.730469 L 270.75 162.730469 L 259.75 162.730469 Z M 259.75 147.730469 "/>
<g style="fill:rgb(100%,0%,0%);fill-opacity:1;">
  <use xlink:href="#glyph0-3" x="259.75" y="159.832031"/>
</g>
<g style="fill:rgb(100%,0%,0%);fill-opacity:1;">
  <use xlink:href="#glyph1-2" x="267.091797" y="154.949219"/>
</g>
</g>
</svg>

<svg xmlns="http://www.w3.org/2000/svg" xmlns:xlink="http://www.w3.org/1999/xlink" width="300pt" height="300pt" viewBox="0 0 300 300"><defs><symbol overflow="visible"><path d="M.453 1.594v-7.938h4.5v7.938zm.5-.5h3.5v-6.938h-3.5zm0 0"/></symbol><symbol overflow="visible" id="a"><path d="M.89-6.563H2.08l2.906 5.485v-5.484h.86V0H4.656L1.75-5.484V0H.89zm0 0"/></symbol><symbol overflow="visible" id="b"><path d="M.89-6.563h.876v2.688H5v-2.688h.89V0H5v-3.125H1.766V0H.89zm0 0"/></symbol><symbol overflow="visible" id="c"><path d="M3.547-5.953c-.65 0-1.164.242-1.547.72-.375.48-.563 1.13-.563 1.952 0 .835.188 1.49.563 1.967.383.48.898.72 1.547.72.644 0 1.156-.24 1.53-.72.376-.476.564-1.132.564-1.968 0-.822-.187-1.474-.562-1.954-.375-.477-.887-.72-1.53-.72zm0-.734c.914 0 1.648.312 2.203.937.55.617.828 1.438.828 2.47 0 1.042-.277 1.87-.828 2.483-.555.617-1.29.922-2.203.922-.93 0-1.668-.305-2.22-.922C.774-1.41.5-2.237.5-3.28c0-1.033.273-1.853.828-2.47.55-.625 1.29-.938 2.22-.938zm0 0"/></symbol><symbol overflow="visible"><path d="M.406 1.422V-5.64h4V1.42zM.844.97h3.11v-6.157H.843zm0 0"/></symbol><symbol overflow="visible" id="d"><path d="M3.688-5.016v2.172h2.17v.672H3.69V0H3.03v-2.172H.845v-.672H3.03v-2.172zm0 0"/></symbol><symbol overflow="visible" id="e"><path d="M.39-2.516H2.5v.64H.39zm0 0"/></symbol></defs><g><path fill="#fff" d="M0 0h300v300H0z"/><path d="M35.25 156.19l2.016-21.885M40.602 154.477l1.613-17.512M53.2 168.883L35.25 156.19M37.266 134.305l19.96-9.203M57.227 125.102l17.953 12.69M56.04 130.594l14.358 10.152M75.18 137.793l-2.016 21.887" stroke-width="1.2" stroke="#000" stroke-miterlimit="10" fill="none"/><path d="M95.14 128.59l-9.98 4.6" stroke-width="1.2" stroke="#00f" stroke-miterlimit="10" fill="none"/><path d="M85.16 133.19l-9.98 4.603M73.164 159.68L53.2 168.883M69.004 155.902l-15.973 7.364M73.164 159.68l17.95 12.69M91.113 172.37l19.965-9.202M90.945 166.754l15.973-7.363M111.078 163.168l2.016-21.887M113.094 141.28l-8.977-6.346" stroke-width="1.2" stroke="#000" stroke-miterlimit="10" fill="none"/><path d="M104.117 134.934l-8.976-6.344" stroke-width="1.2" stroke="#00f" stroke-miterlimit="10" fill="none"/><path d="M108.313 144.234l-7.18-5.074" stroke-width="1.2" stroke="#000" stroke-miterlimit="10" fill="none"/><path d="M101.133 139.16l-7.18-5.078" stroke-width="1.2" stroke="#00f" stroke-miterlimit="10" fill="none"/><path d="M113.094 141.28l9.98-4.6" stroke-width="1.2" stroke="#000" stroke-miterlimit="10" fill="none"/><path d="M123.074 136.68l9.985-4.602" stroke-width="1.2" stroke="#00f" stroke-miterlimit="10" fill="none"/><path d="M92.14 123.09h7v11h-7zm0 0" fill="#fff"/><use xlink:href="#a" x="92.141" y="131.753" fill="#00f"/><path d="M133.06 132.078l17.948 12.692" stroke-width="1.2" stroke="#00f" stroke-miterlimit="10" fill="none"/><path d="M126.06 126.578h14v11h-14zm0 0" fill="#fff"/><g fill="#00f"><use xlink:href="#a" x="126.059" y="135.241"/><use xlink:href="#b" x="133.036" y="135.241"/></g><path d="M151.008 144.77l9.98-4.602" stroke-width="1.2" stroke="#00f" stroke-miterlimit="10" fill="none"/><path d="M160.988 140.168l9.985-4.602" stroke-width="1.2" stroke="#000" stroke-miterlimit="10" fill="none"/><path d="M144.008 139.27h14v11h-14zm0 0" fill="#fff"/><g fill="#00f"><use xlink:href="#a" x="144.008" y="147.933"/><use xlink:href="#b" x="150.985" y="147.933"/></g><path d="M170.973 135.566l17.95 12.692M169.78 141.06l14.36 10.15M188.922 148.258l-2.016 21.887M188.922 148.258l19.965-9.203M186.906 170.145l17.953 12.69M191.688 167.19l14.36 10.154M204.86 182.836l19.96-9.203M224.82 173.633l2.016-21.89M219.87 170.973l1.614-17.512M226.836 151.742l-17.95-12.687M226.836 151.742l9.98-4.597" stroke-width="1.2" stroke="#000" stroke-miterlimit="10" fill="none"/><path d="M236.816 147.145l9.985-4.602" stroke-width="1.2" stroke="#00f" stroke-miterlimit="10" fill="none"/><path d="M211.46 139.293l1.01-10.945" stroke-width="1.2" stroke="#000" stroke-miterlimit="10" fill="none"/><path d="M212.47 128.348l1.007-10.946" stroke-width="1.2" stroke="#f00" stroke-miterlimit="10" fill="none"/><path d="M206.31 138.816l1.006-10.94" stroke-width="1.2" stroke="#000" stroke-miterlimit="10" fill="none"/><path d="M207.316 127.875l1.008-10.945" stroke-width="1.2" stroke="#f00" stroke-miterlimit="10" fill="none"/><path d="M206.898 111.664h8v11h-8zm0 0" fill="#fff"/><use xlink:href="#c" x="206.898" y="120.327" fill="#f00"/><path d="M249.375 142.78l1.008-10.944" stroke-width="1.2" stroke="#00f" stroke-miterlimit="10" fill="none"/><path d="M250.383 131.836l1.008-10.945" stroke-width="1.2" stroke="#f00" stroke-miterlimit="10" fill="none"/><path d="M244.223 142.305l1.007-10.942" stroke-width="1.2" stroke="#00f" stroke-miterlimit="10" fill="none"/><path d="M245.23 131.363l1.008-10.945" stroke-width="1.2" stroke="#f00" stroke-miterlimit="10" fill="none"/><path d="M246.8 142.543l8.973 6.344" stroke-width="1.2" stroke="#00f" stroke-miterlimit="10" fill="none"/><path d="M255.773 148.887l8.977 6.343" stroke-width="1.2" stroke="#f00" stroke-miterlimit="10" fill="none"/><path d="M239.8 135.043h14v15h-14zm0 0" fill="#fff"/><use xlink:href="#a" x="239.801" y="147.145" fill="#00f"/><use xlink:href="#d" x="246.778" y="142.262" fill="#00f"/><path d="M244.813 115.152h8v11h-8zm0 0" fill="#fff"/><use xlink:href="#c" x="244.813" y="123.815" fill="#f00"/><path d="M259.75 147.73h11v15h-11zm0 0" fill="#fff"/><use xlink:href="#c" x="259.75" y="159.832" fill="#f00"/><use xlink:href="#e" x="267.092" y="154.949" fill="#f00"/></g></svg>
